src/assets/QrCodeScan.svg

<svg fill="none" height="16" viewBox="0 0 16 16" width="16" xmlns="http://www.w3.org/2000/svg"><g fill="#fff"><path d="m10.0001 15.2163c0 .4213.3473.7624.7679.7399 1.2023-.0642 2.0247-.2226 2.7093-.613.7778-.4437 1.4222-1.0881 1.8658-1.8659.3905-.6846.5488-1.507.613-2.7093.0225-.4207-.3185-.768-.7398-.768-.4072 0-.7375.3251-.7603.7317-.0088.157-.0194.3058-.0321.4475-.0729.812-.2062 1.2436-.3837 1.5549-.3106.5445-.7617.9955-1.3061 1.3061-.3113.1776-.743.3108-1.555.3837-.1416.0127-.2903.0233-.4474.0321-.4066.0228-.7316.3531-.7316.7603z"/><path d="m10.0001.78366c0 .40724.325.73749.7316.76032.1571.00882.3058.01941.4474.03212.812.07287 1.2437.20613 1.555.38369.5444.31056.9955.76163 1.3061 1.3061.1775.3113.3108.74294.3837 1.55494.0127.14166.0233.29042.0321.44751.0228.4066.3531.73166.7603.73166.4213 0 .7623-.34727.7398-.76796-.0642-1.20231-.2225-2.02479-.613-2.70934-.4436-.77781-1.088-1.4222-1.8658-1.865859-.6846-.390446-1.507-.548799-2.7093-.6130233-.4206-.0224731-.7679.3185553-.7679.7398423z"/><path d="m5.23212.0438052c.42069-.0224678.76796.3185588.76796.7398448 0 .40725-.32506.73749-.73167.76032-.15712.00882-.30592.01941-.44761.03213-.81201.07287-1.24365.20613-1.55494.38369-.54447.31056-.99555.76163-1.30611 1.3061-.17756.3113-.31082.74294-.38369 1.55494-.01271.14166-.0233.29042-.03212.44751-.02283.4066-.35308.73166-.760322.73166-.421286 0-.7623135-.34727-.7398431-.76796.0642201-1.20231.2225711-2.02479.6130291-2.70934.443656-.77781 1.088056-1.4222 1.865866-1.865859.68457-.390471 1.50708-.54882 2.70945-.6130358z"/><path d="m5.26841 14.456c.40661.0229.73167.3531.73167.7603 0 .4213-.34727.7624-.76796.7399-1.20237-.0642-2.02488-.2226-2.70945-.613-.77781-.4437-1.42221-1.0881-1.865866-1.8659-.390458-.6846-.548809-1.507-.6130291-2.7093-.0224704-.4207.3185571-.768.7398431-.768.407242 0 .737492.3251.760322.7317.00882.157.01941.3058.03212.4475.07287.812.20613 1.2436.38369 1.5549.31056.5445.76164.9955 1.30611 1.3061.31129.1776.74293.3108 1.55494.3837.14169.0127.29049.0233.44761.0321z"/></g></svg>

<svg width="16" height="16" viewBox="0 0 16 16" fill="none"
	xmlns="http://www.w3.org/2000/svg">
	<path d="M10.0001 15.2163C10.0001 15.6376 10.3474 15.9787 10.768 15.9562C11.9703 15.892 12.7927 15.7336 13.4773 15.3432C14.2551 14.8995 14.8995 14.2551 15.3431 13.4773C15.7336 12.7927 15.8919 11.9703 15.9561 10.768C15.9786 10.3473 15.6376 10 15.2163 10C14.8091 10 14.4788 10.3251 14.456 10.7317C14.4472 10.8887 14.4366 11.0375 14.4239 11.1792C14.351 11.9912 14.2177 12.4228 14.0402 12.7341C13.7296 13.2786 13.2785 13.7296 12.7341 14.0402C12.4228 14.2178 11.9911 14.351 11.1791 14.4239C11.0375 14.4366 10.8888 14.4472 10.7317 14.456C10.3251 14.4788 10.0001 14.8091 10.0001 15.2163Z" fill="white"/>
	<path d="M10.0001 0.78366C10.0001 1.1909 10.3251 1.52115 10.7317 1.54398C10.8888 1.5528 11.0375 1.56339 11.1791 1.5761C11.9911 1.64897 12.4228 1.78223 12.7341 1.95979C13.2785 2.27035 13.7296 2.72142 14.0402 3.26589C14.2177 3.57719 14.351 4.00883 14.4239 4.82083C14.4366 4.96249 14.4472 5.11125 14.456 5.26834C14.4788 5.67494 14.8091 6 15.2163 6C15.6376 6 15.9786 5.65273 15.9561 5.23204C15.8919 4.02973 15.7336 3.20725 15.3431 2.5227C14.8995 1.74489 14.2551 1.1005 13.4773 0.656841C12.7927 0.266395 11.9703 0.108042 10.768 0.0438177C10.3474 0.0213446 10.0001 0.362373 10.0001 0.78366Z" fill="white"/>
	<path d="M5.23212 0.0438052C5.65281 0.0213374 6.00008 0.362364 6.00008 0.78365C6.00008 1.1909 5.67502 1.52114 5.26841 1.54397C5.11129 1.55279 4.96249 1.56338 4.8208 1.5761C4.00879 1.64897 3.57715 1.78223 3.26586 1.95979C2.72139 2.27035 2.27031 2.72142 1.95975 3.26589C1.78219 3.57719 1.64893 4.00883 1.57606 4.82083C1.56335 4.96249 1.55276 5.11125 1.54394 5.26834C1.52111 5.67494 1.19086 6 0.783618 6C0.362332 6 0.0213045 5.65273 0.0437749 5.23204C0.107995 4.02973 0.266346 3.20725 0.656804 2.5227C1.10046 1.74489 1.74486 1.1005 2.52267 0.656841C3.20724 0.26637 4.02975 0.108021 5.23212 0.0438052Z" fill="white"/>
	<path d="M5.26841 14.456C5.67502 14.4789 6.00008 14.8091 6.00008 15.2163C6.00008 15.6376 5.65281 15.9787 5.23212 15.9562C4.02975 15.892 3.20724 15.7336 2.52267 15.3432C1.74486 14.8995 1.10046 14.2551 0.656804 13.4773C0.266346 12.7927 0.107995 11.9703 0.0437749 10.768C0.0213045 10.3473 0.362332 10 0.783618 10C1.19086 10 1.52111 10.3251 1.54394 10.7317C1.55276 10.8887 1.56335 11.0375 1.57606 11.1792C1.64893 11.9912 1.78219 12.4228 1.95975 12.7341C2.27031 13.2786 2.72139 13.7296 3.26586 14.0402C3.57715 14.2178 4.00879 14.351 4.8208 14.4239C4.96249 14.4366 5.11129 14.4472 5.26841 14.456Z" fill="white"/>
</svg>
